X: 31616
T: Pani's
R: polka
M: 2/4
K: Dmajor
|:gb|"A7"a>gea geag|"D"(3fed fb agef|"A7"a>gea geag|"D"fd "A"ec "D"d2:|
|:ed|"A7"(3cBA eg "D"fd "A7"ec|"A7"(3cBA eg "D"f2 ed|"A7"cBA eg "D"fd "A"ec|"A7"fage "D"d2:|

